adidas.svg

<svg viewBox="0 0 24 24" xmlns="http://www.w3.org/2000/svg"><path d="m17.632 14.236-6.62-11.505L15.768 0 24 14.236h-6.368M0 12.624l4.756-2.75 2.516 4.362H.922L0 12.624m5.574-4.885 4.756-2.744 5.334 9.241c-2.495-.01-6.404-.01-6.331-.006L5.574 7.74"/></svg>

<svg viewBox="0 0 24 24" version="1.1" xmlns="http://www.w3.org/2000/svg" xmlns:xlink="http://www.w3.org/1999/xlink">
    <title>Adidas</title>
        <path d="M17.632,14.236 L11.012,2.731 L15.768,0 L24,14.236 L17.632,14.236 M0,12.624 L4.756,9.874 L7.272,14.236 L0.922,14.236 L0,12.624 M5.574,7.739 L10.33,4.995 L15.664,14.236 C13.169,14.226 9.26,14.226 9.333,14.23 L5.574,7.74" fill="#000000" fill-rule="nonzero"></path>
</svg>
